src/lib/images/svgs/icon-mouse.svg

<?xml version="1.0" encoding="UTF-8"?> <svg xmlns="http://www.w3.org/2000/svg" xmlns:xlink="http://www.w3.org/1999/xlink" width="64px" height="64px" viewBox="0 0 64 64" version="1.1"> <g id="surface1"> <path style=" stroke:none;fill-rule:nonzero;fill:rgb(93.72549%,26.666667%,26.666667%);fill-opacity:1;" d="M 45.132812 29.6875 C 40.304688 29.6875 36.378906 25.761719 36.378906 20.933594 L 36.378906 9.320312 C 36.378906 5.121094 32.964844 1.707031 28.765625 1.707031 C 24.570312 1.707031 21.152344 5.121094 21.152344 9.320312 L 21.152344 17.160156 C 21.152344 17.472656 20.898438 17.726562 20.585938 17.726562 C 20.269531 17.726562 20.015625 17.472656 20.015625 17.160156 L 20.015625 9.320312 C 20.015625 4.496094 23.941406 0.570312 28.765625 0.570312 C 33.59375 0.570312 37.519531 4.496094 37.519531 9.320312 L 37.519531 20.933594 C 37.519531 25.132812 40.933594 28.550781 45.132812 28.550781 C 49.25 28.550781 52.664062 25.203125 52.742188 21.089844 C 52.75 20.777344 53.003906 20.53125 53.3125 20.53125 L 53.324219 20.53125 C 53.636719 20.539062 53.886719 20.796875 53.882812 21.113281 C 53.789062 25.839844 49.863281 29.6875 45.132812 29.6875 Z M 45.132812 29.6875 "/> <path style=" stroke:none;fill-rule:nonzero;fill:rgb(93.72549%,26.666667%,26.666667%);fill-opacity:1;" d="M 20.585938 25.828125 C 19.25 25.828125 18.160156 24.742188 18.160156 23.402344 L 18.160156 19.011719 C 18.160156 17.675781 19.25 16.589844 20.585938 16.589844 C 21.917969 16.589844 23.007812 17.675781 23.007812 19.011719 L 23.007812 23.402344 C 23.007812 24.742188 21.917969 25.828125 20.585938 25.828125 Z M 20.585938 17.726562 C 19.875 17.726562 19.300781 18.304688 19.300781 19.011719 L 19.300781 23.40625 C 19.300781 24.113281 19.875 24.6875 20.585938 24.6875 C 21.292969 24.6875 21.867188 24.113281 21.867188 23.40625 L 21.867188 19.011719 C 21.867188 18.304688 21.292969 17.726562 20.585938 17.726562 Z M 20.585938 17.726562 "/> <path style=" stroke:none;fill-rule:nonzero;fill:rgb(93.72549%,26.666667%,26.666667%);fill-opacity:1;" d="M 20.585938 28.765625 C 20.269531 28.765625 20.015625 28.511719 20.015625 28.195312 L 20.015625 25.257812 C 20.015625 24.941406 20.269531 24.6875 20.585938 24.6875 C 20.898438 24.6875 21.152344 24.941406 21.152344 25.257812 L 21.152344 28.195312 C 21.152344 28.511719 20.898438 28.765625 20.585938 28.765625 Z M 20.585938 28.765625 "/> <path style=" stroke:none;fill-rule:nonzero;fill:rgb(93.72549%,26.666667%,26.666667%);fill-opacity:1;" d="M 20.585938 50.632812 C 13.839844 50.632812 8.242188 45.359375 7.84375 38.625 L 7.089844 25.980469 C 6.898438 22.746094 8.015625 19.667969 10.238281 17.308594 C 12.460938 14.949219 15.46875 13.648438 18.707031 13.648438 L 22.457031 13.648438 C 25.699219 13.648438 28.707031 14.949219 30.929688 17.308594 C 33.152344 19.667969 34.269531 22.746094 34.078125 25.980469 L 33.324219 38.625 C 32.925781 45.359375 27.328125 50.632812 20.585938 50.632812 Z M 18.710938 14.789062 C 15.785156 14.789062 13.070312 15.960938 11.066406 18.085938 C 9.058594 20.214844 8.050781 22.996094 8.226562 25.914062 L 8.980469 38.558594 C 9.34375 44.691406 14.441406 49.496094 20.582031 49.496094 C 26.726562 49.496094 31.824219 44.691406 32.1875 38.558594 L 32.941406 25.914062 C 33.117188 22.996094 32.105469 20.214844 30.101562 18.085938 C 28.097656 15.960938 25.382812 14.789062 22.457031 14.789062 Z M 18.710938 14.789062 "/> <path style=" stroke:none;fill-rule:nonzero;fill:rgb(93.72549%,26.666667%,26.666667%);fill-opacity:1;" d="M 20.585938 28.765625 C 17.9375 28.765625 15.367188 28.023438 13.140625 26.613281 C 10.976562 25.242188 9.230469 23.308594 8.09375 21.019531 C 8.054688 20.941406 8.03125 20.855469 8.03125 20.765625 C 8.03125 20.453125 8.289062 20.195312 8.601562 20.195312 C 8.835938 20.195312 9.035156 20.335938 9.125 20.535156 C 11.308594 24.910156 15.695312 27.628906 20.585938 27.628906 C 25.484375 27.628906 29.878906 24.902344 32.058594 20.511719 C 32.199219 20.230469 32.539062 20.117188 32.820312 20.253906 C 33.101562 20.394531 33.214844 20.738281 33.078125 21.019531 C 31.941406 23.308594 30.195312 25.242188 28.03125 26.613281 C 25.804688 28.023438 23.230469 28.765625 20.585938 28.765625 Z M 20.585938 28.765625 "/> <path style=" stroke:none;fill-rule:nonzero;fill:rgb(93.72549%,26.666667%,26.666667%);fill-opacity:1;" d="M 56.359375 21.671875 L 50.265625 21.671875 C 49.953125 21.671875 49.695312 21.414062 49.695312 21.101562 L 49.695312 15.796875 C 49.695312 15.480469 49.953125 15.226562 50.265625 15.226562 L 56.359375 15.226562 C 56.675781 15.226562 56.929688 15.480469 56.929688 15.796875 L 56.929688 21.101562 C 56.929688 21.414062 56.675781 21.671875 56.359375 21.671875 Z M 50.835938 20.53125 L 55.792969 20.53125 L 55.792969 16.363281 L 50.835938 16.363281 Z M 50.835938 20.53125 "/> <path style=" stroke:none;fill-rule:nonzero;fill:rgb(93.72549%,26.666667%,26.666667%);fill-opacity:1;" d="M 55.003906 16.363281 L 51.621094 16.363281 C 51.304688 16.363281 51.050781 16.109375 51.050781 15.796875 L 51.050781 12.410156 C 51.050781 12.097656 51.304688 11.839844 51.621094 11.839844 L 55.003906 11.839844 C 55.320312 11.839844 55.574219 12.097656 55.574219 12.410156 L 55.574219 15.796875 C 55.574219 16.109375 55.320312 16.363281 55.003906 16.363281 Z M 52.1875 15.226562 L 54.4375 15.226562 L 54.4375 12.980469 L 52.1875 12.980469 Z M 52.1875 15.226562 "/> </g> </svg>

<svg xmlns="http://www.w3.org/2000/svg" width="64" height="64"><path d="M45.133 29.688c-4.828 0-8.754-3.926-8.754-8.754V9.32c0-4.199-3.414-7.613-7.613-7.613-4.196 0-7.614 3.414-7.614 7.613v7.84a.568.568 0 0 1-1.137 0V9.32c0-4.824 3.926-8.75 8.75-8.75 4.829 0 8.755 3.926 8.755 8.75v11.614c0 4.199 3.414 7.617 7.613 7.617 4.117 0 7.531-3.348 7.61-7.461a.571.571 0 0 1 .57-.559h.011a.574.574 0 0 1 .559.582c-.094 4.727-4.02 8.575-8.75 8.575Zm0 0" style="stroke:none;fill-rule:nonzero;fill:#ef4444;fill-opacity:1"/><path d="M20.586 25.828a2.428 2.428 0 0 1-2.426-2.426v-4.39a2.427 2.427 0 0 1 2.426-2.422 2.426 2.426 0 0 1 2.422 2.422v4.39c0 1.34-1.09 2.426-2.422 2.426Zm0-8.101c-.711 0-1.285.578-1.285 1.285v4.394a1.283 1.283 0 0 0 2.566 0v-4.394c0-.707-.574-1.285-1.281-1.285Zm0 0" style="stroke:none;fill-rule:nonzero;fill:#ef4444;fill-opacity:1"/><path d="M20.586 28.766a.568.568 0 0 1-.57-.57v-2.938a.568.568 0 1 1 1.136 0v2.937c0 .317-.254.57-.566.57Zm0 0" style="stroke:none;fill-rule:nonzero;fill:#ef4444;fill-opacity:1"/><path d="M20.586 50.633c-6.746 0-12.344-5.274-12.742-12.008L7.09 25.98a11.53 11.53 0 0 1 3.148-8.671 11.527 11.527 0 0 1 8.469-3.66h3.75c3.242 0 6.25 1.3 8.473 3.66a11.53 11.53 0 0 1 3.148 8.671l-.754 12.645c-.398 6.734-5.996 12.008-12.738 12.008ZM18.71 14.789c-2.926 0-5.64 1.172-7.645 3.297a10.39 10.39 0 0 0-2.84 7.828L8.98 38.56c.364 6.132 5.461 10.937 11.602 10.937 6.145 0 11.242-4.805 11.605-10.937l.754-12.645c.176-2.918-.836-5.7-2.84-7.828a10.408 10.408 0 0 0-7.644-3.297Zm0 0" style="stroke:none;fill-rule:nonzero;fill:#ef4444;fill-opacity:1"/><path d="M20.586 28.766a13.88 13.88 0 0 1-7.445-2.153 13.992 13.992 0 0 1-5.047-5.593.567.567 0 0 1-.063-.254c0-.313.258-.57.57-.57.235 0 .434.14.524.34 2.184 4.374 6.57 7.093 11.46 7.093 4.9 0 9.294-2.727 11.474-7.117a.571.571 0 0 1 .761-.258c.282.14.395.484.258.766a13.992 13.992 0 0 1-5.047 5.593 13.889 13.889 0 0 1-7.445 2.153ZM56.36 21.672h-6.094a.574.574 0 0 1-.57-.57v-5.305c0-.317.257-.57.57-.57h6.093c.317 0 .57.253.57.57v5.305c0 .312-.253.57-.57.57Zm-5.524-1.14h4.957v-4.169h-4.957Zm0 0" style="stroke:none;fill-rule:nonzero;fill:#ef4444;fill-opacity:1"/><path d="M55.004 16.363H51.62a.568.568 0 0 1-.57-.566V12.41c0-.312.254-.57.57-.57h3.383c.316 0 .57.258.57.57v3.387a.568.568 0 0 1-.57.566Zm-2.816-1.136h2.25V12.98h-2.25Zm0 0" style="stroke:none;fill-rule:nonzero;fill:#ef4444;fill-opacity:1"/></svg>
